X: 137016
Q: "Irish Jig."
M: 6/8
L: 1/8
K: A
|:\
v{efg}a2vA AGA | FAA EAA | {efg}a2A AGA | FBA GFE |\
{efg}a2A AGA | FAA EAA | FAA BAB | cAA A3 H:|
|:\


